**kern	**text	**kern	**text	**kern	**text	**kern	**text	**kern	**text
*staff5	*staff5	*staff4	*staff4	*staff3	*staff3	*staff2	*staff2	*staff1	*staff1
*I"Basso	*	*I"Tenore	*	*I"Alto	*	*I"Soprano II	*	*I"Soprano I	*
=1-	=1-	=1-	=1-	=1-	=1-	=1-	=1-	=1-	=1-
*clefF4	*	*clefGv2	*	*clefGv2	*	*clefG2	*	*clefG2	*
*k[]	*	*k[]	*	*k[]	*	*k[]	*	*k[]	*
*met(c|)	*	*met(c|)	*	*met(c|)	*	*met(c|)	*	*met(c|)	*
*M2/2	*	*M2/2	*	*M2/2	*	*M2/2	*	*M2/2	*
[1C	U-	[1c	U-	[1e	U-	1r	.	[1g	U-
=2	=2	=2	=2	=2	=2	=2	=2	=2	=2
2C/]	.	2c\]	.	2e\]	.	1r	.	2g/]	.
2C/	-nus	2c\	-nus	2e\	-nus	.	.	2g/	-nus
=3	=3	=3	=3	=3	=3	=3	=3	=3	=3
2C/	ex	2c\	ex	2e\	ex	1r	.	2g/	ex
2C/	di-	2c\	di-	2e\	di-	.	.	2g/	di-
=4	=4	=4	=4	=4	=4	=4	=4	=4	=4
1C	-sci-	1c	-sci-	1e	-sci-	1r	.	1g	-sci-
=5	=5	=5	=5	=5	=5	=5	=5	=5	=5
2C/	-pu-	2c\	-pu-	2e\	-pu-	1r	.	2g/	-pu-
2C/	-lis	2c\	-lis	2e\	-lis	.	.	2g/	-lis
=6	=6	=6	=6	=6	=6	=6	=6	=6	=6
1D	me-	1A	me-	1d	me-	1r	.	1f	me-
=7	=7	=7	=7	=7	=7	=7	=7	=7	=7
2E\	-is	2G#/	-is	2B\	-is	1r	.	2e/	-is
[2E\	tra-	[2G#/	tra-	[2B\	tra-	.	.	[2e/	tra-
=8	=8	=8	=8	=8	=8	=8	=8	=8	=8
2E\]	.	2G#/]	.	2B\]	.	1r	.	2e/]	.
2AA/	-det	2A/	-det	2c#\	-det	.	.	2e/	-det
=9	=9	=9	=9	=9	=9	=9	=9	=9	=9
1D	me	1A	me	1d	me	1r	.	1f	me
=10	=10	=10	=10	=10	=10	=10	=10	=10	=10
[1C	ho-	[1c	ho-	[1e	ho-	1r	.	[1g	ho-
=11	=11	=11	=11	=11	=11	=11	=11	=11	=11
2C/]	.	2c\]	.	2e\]	.	1r	.	2g/]	.
2GG/	-di-	2B\	-di-	2d\	-di-	.	.	2g/	-di-
=12	=12	=12	=12	=12	=12	=12	=12	=12	=12
1GG	-e:	1B	-e:	1d	-e:	1r	.	1g	-e:
=13	=13	=13	=13	=13	=13	=13	=13	=13	=13
!!linebreak:original
2r	.	2r	.	2r	.	1r	.	2r	.
2C/	Vae	2c\	Vae	2e\	Vae	.	.	2g/	Vae
=14	=14	=14	=14	=14	=14	=14	=14	=14	=14
1F	il-	1c	il-	1f	il-	1r	.	1a	il-
=15	=15	=15	=15	=15	=15	=15	=15	=15	=15
2C/	-li	2c\	-li	2e\	-li	1r	.	2g/	-li
2C/	per	2c\	per	2e\	per	.	.	2g/	per
=16	=16	=16	=16	=16	=16	=16	=16	=16	=16
2C/	quem	2c\	quem	2e\	quem	1r	.	2g/	quem
[2C/	tra-	[2c\	tra-	[2e\	tra-	.	.	[2g/	tra-
=17	=17	=17	=17	=17	=17	=17	=17	=17	=17
2C/]	.	2c\]	.	2e\]	.	1r	.	2g/]	.
2GG/	-dar	2B\	-dar	2d\	-dar	.	.	2g/	-dar
=18	=18	=18	=18	=18	=18	=18	=18	=18	=18
1AA	e-	1A	e-	1c	e-	1r	.	1e	e-
=19	=19	=19	=19	=19	=19	=19	=19	=19	=19
[1E	-go:	[1G#	-go:	[1B	-go:	1r	.	[1e	-go:
=20	=20	=20	=20	=20	=20	=20	=20	=20	=20
1E]	.	1G#]	.	1B]	.	1r	.	1e]	.
=21||	=21||	=21||	=21||	=21||	=21||	=21||	=21||	=21||	=21||
1E	Me-	1B	Me-	1e	Me-	1r	.	1g	Me-
=22	=22	=22	=22	=22	=22	=22	=22	=22	=22
2E\	-li-	2B\	-li-	2e\	-li-	1r	.	2g/	-li-
2E\	-us	2B\	-us	2e\	-us	.	.	2g/	-us
=23	=23	=23	=23	=23	=23	=23	=23	=23	=23
2F\	il-	2A/	il-	2c\	il-	1r	.	2f/	il-
2A\	-li	2c\	-li	2c\	-li	.	.	2e/	-li
=24	=24	=24	=24	=24	=24	=24	=24	=24	=24
!!pagebreak:original
1G	e-	1B	e-	1d	e-	1r	.	1g	e-
=25	=25	=25	=25	=25	=25	=25	=25	=25	=25
1C	-rat,	1c	-rat,	1e	-rat,	1r	.	1g	-rat,
=26	=26	=26	=26	=26	=26	=26	=26	=26	=26
2C/	si	2c\	si	2e\	si	1r	.	2g/	si
[2F\	na-	[2c\	na-	[2f\	na-	.	.	[2a/	na-
=27	=27	=27	=27	=27	=27	=27	=27	=27	=27
2F\]	.	2c\]	.	2f\]	.	1r	.	2a/]	.
2C/	-tus	2c\	-tus	2e\	-tus	.	.	2g/	-tus
=28	=28	=28	=28	=28	=28	=28	=28	=28	=28
1D	non	1A	non	1d	non	1r	.	1f	non
=29	=29	=29	=29	=29	=29	=29	=29	=29	=29
1E	fu-	1G	fu-	2B\	.	1r	.	1e	fu-
.	.	.	.	[2c\	fu-	.	.	.	.
=30	=30	=30	=30	=30	=30	=30	=30	=30	=30
1F	-is-	2c\	-is-	2c\]	.	1r	.	[1a	-is-
.	.	4B\	.	2d\	-is-	.	.	.	.
.	.	4A/	.	.	.	.	.	.	.
=31	=31	=31	=31	=31	=31	=31	=31	=31	=31
[1E	-set.	2c\	.	[1e	-set.	1r	.	2a/]	.
.	.	2B\	.	.	.	.	.	4g#/	.
.	.	.	.	.	.	.	.	4f#/	.
=32	=32	=32	=32	=32	=32	=32	=32	=32	=32
1E]	.	1B	-set.	1e]	.	1r	.	1g#	-set.
=33||	=33||	=33||	=33||	=33||	=33||	=33||	=33||	=33||	=33||
1r	.	1r	.	1r	.	[1cc	Qui	[1a	Qui
=34	=34	=34	=34	=34	=34	=34	=34	=34	=34
1r	.	1r	.	1r	.	2cc\]	.	2a/]	.
.	.	.	.	.	.	2b\	in-	2g/	in-
=35	=35	=35	=35	=35	=35	=35	=35	=35	=35
1r	.	1r	.	1r	.	1a	-tin-	1f	-tin-
=36	=36	=36	=36	=36	=36	=36	=36	=36	=36
!!linebreak:original
1r	.	1r	.	1r	.	2g/	-git	2e/	-git
.	.	.	.	.	.	[2a/	me-	[2f/	me-
=37	=37	=37	=37	=37	=37	=37	=37	=37	=37
1r	.	1r	.	1r	.	2a/]	.	2f/]	.
.	.	.	.	.	.	2g/	-cum	2e/	-cum
=38	=38	=38	=38	=38	=38	=38	=38	=38	=38
1r	.	1r	.	1r	.	1f	ma-	1a	ma-
=39	=39	=39	=39	=39	=39	=39	=39	=39	=39
1r	.	1r	.	1r	.	2e/	-num	2g/	-num
.	.	.	.	.	.	[2a/	in	[2cc\	in
=40	=40	=40	=40	=40	=40	=40	=40	=40	=40
1r	.	1r	.	1r	.	2a/]	.	2cc\]	.
.	.	.	.	.	.	2g/	pa-	[2b\	pa-
=41	=41	=41	=41	=41	=41	=41	=41	=41	=41
1r	.	1r	.	1r	.	1cc	-ro-	2b\]	.
.	.	.	.	.	.	.	.	[2a/	-ro-
=42	=42	=42	=42	=42	=42	=42	=42	=42	=42
1r	.	1r	.	1r	.	1b	-psi-	2a/]	.
.	.	.	.	.	.	.	.	2g#/	-psi-
=43	=43	=43	=43	=43	=43	=43	=43	=43	=43
1r	.	1r	.	1r	.	1a	-de,	1a	-de,
=44	=44	=44	=44	=44	=44	=44	=44	=44	=44
1r	.	1r	.	1r	.	1r	.	1r	.
=45	=45	=45	=45	=45	=45	=45	=45	=45	=45
1r	.	1r	.	[1e	hic	2r	.	2r	.
.	.	.	.	.	.	[2b\	hic	[2g#/	hic
=46	=46	=46	=46	=46	=46	=46	=46	=46	=46
1r	.	1r	.	1e]	.	2b\]	.	2g#/]	.
.	.	.	.	.	.	[2cc\	me	[2a/	me
=47	=47	=47	=47	=47	=47	=47	=47	=47	=47
!!linebreak:original
1r	.	1r	.	1e	me	2cc\]	.	2a/]	.
.	.	.	.	.	.	2b\	tra-	2g#/	tra-
=48	=48	=48	=48	=48	=48	=48	=48	=48	=48
1r	.	1r	.	2A/	tra-	2cc\	-di-	2a/	-di-
.	.	.	.	2B\	-di-	2b\	-tu-	2g#/	-tu-
=49	=49	=49	=49	=49	=49	=49	=49	=49	=49
1r	.	1r	.	2c\	-tu-	2b\	-rus	2g#i/	-rus
.	.	.	.	2d\	-rus	2a/	est	2f/	est
=50	=50	=50	=50	=50	=50	=50	=50	=50	=50
1r	.	1r	.	1e	est	1g#i	in	2e/	.
.	.	.	.	.	.	.	.	2b\	in
=51	=51	=51	=51	=51	=51	=51	=51	=51	=51
1r	.	1r	.	1A	in	1e	ma-	1cc	ma-
=52	=52	=52	=52	=52	=52	=52	=52	=52	=52
1r	.	1r	.	1d	ma-	1f	-nus	1a	-nus
=53	=53	=53	=53	=53	=53	=53	=53	=53	=53
1r	.	1r	.	2G/	-nus	2d/	pec-	2b\	pec-
.	.	.	.	[2c\	pec-	[2e/	.	2g/	-ca-
=54	=54	=54	=54	=54	=54	=54	=54	=54	=54
1r	.	1r	.	2c\]	.	2e/]	.	2cc\	-to-
.	.	.	.	2d\	-ca-	2f#/	-ca-	4b\	.
.	.	.	.	.	.	.	.	4a/	.
=55	=55	=55	=55	=55	=55	=55	=55	=55	=55
1r	.	1r	.	[1e	-to-	4g/	-to-	1cc	.
.	.	.	.	.	.	4e/	.	.	.
.	.	.	.	.	.	[2a/	.	.	.
=56	=56	=56	=56	=56	=56	=56	=56	=56	=56
1r	.	1r	.	1e]	.	4a/]	.	1b	.
.	.	.	.	.	.	8g#/L	.	.	.
.	.	.	.	.	.	8f#i/J	.	.	.
.	.	.	.	.	.	2g#/	.	.	.
=57	=57	=57	=57	=57	=57	=57	=57	=57	=57
1r	.	1r	.	[1A	-rum.	[1a	-rum.	[1a	-rum.
=58	=58	=58	=58	=58	=58	=58	=58	=58	=58
1r	.	1r	.	1A]	.	1a]	.	1a]	.
!!pagebreak:original
=59||	=59||	=59||	=59||	=59||	=59||	=59||	=59||	=59||	=59||
!!pagebreak:original
1E	Me-	1B	Me-	1e	Me-	1r	.	1g	Me-
=60	=60	=60	=60	=60	=60	=60	=60	=60	=60
2E\	-li-	2B\	-li-	2e\	-li-	1r	.	2g/	-li-
2E\	-us	2B\	-us	2e\	-us	.	.	2g/	-us
=61	=61	=61	=61	=61	=61	=61	=61	=61	=61
2F\	il-	2A/	il-	2c\	il-	1r	.	2f/	il-
2A\	-li	2c\	-li	2c\	-li	.	.	2e/	-li
=62	=62	=62	=62	=62	=62	=62	=62	=62	=62
1G	e-	1B	e-	1d	e-	1r	.	1g	e-
=63	=63	=63	=63	=63	=63	=63	=63	=63	=63
1C	-rat,	1c	-rat,	1e	-rat,	1r	.	1g	-rat,
=64	=64	=64	=64	=64	=64	=64	=64	=64	=64
2C/	si	2c\	si	2e\	si	1r	.	2g/	si
[2F\	na-	[2c\	na-	[2f\	na-	.	.	[2a/	na-
=65	=65	=65	=65	=65	=65	=65	=65	=65	=65
2F\]	.	2c\]	.	2f\]	.	1r	.	2a/]	.
2C/	-tus	2c\	-tus	2e\	-tus	.	.	2g/	-tus
=66	=66	=66	=66	=66	=66	=66	=66	=66	=66
1D	non	1A	non	1d	non	1r	.	1f	non
=67	=67	=67	=67	=67	=67	=67	=67	=67	=67
1E	fu-	1G	fu-	2B\	.	1r	.	1e	fu-
.	.	.	.	[2c\	fu-	.	.	.	.
=68	=68	=68	=68	=68	=68	=68	=68	=68	=68
1F	-is-	2c\	-is-	2c\]	.	1r	.	1a	-is-
.	.	4B\	.	2d\	-is-	.	.	.	.
.	.	4A/	.	.	.	.	.	.	.
=69	=69	=69	=69	=69	=69	=69	=69	=69	=69
[1E	-set.	2c\	.	[1e	-set.	1r	.	2a/	.
.	.	2B\	.	.	.	.	.	4g#/	.
.	.	.	.	.	.	.	.	4f#/	.
=70	=70	=70	=70	=70	=70	=70	=70	=70	=70
1E]	.	1B	-set.	1e]	.	1r	.	1g#	-set.
==	==	==	==	==	==	==	==	==	==
*-	*-	*-	*-	*-	*-	*-	*-	*-	*-
!!!OTL: Unus ex discipulis meis 
!!!COM: Ingegneri, Marc' Antonio
!!!CDT: ca. 1535/36-1592-07-01
!!!TXO: Latin
!!!ODT: 
!!!ARL: Klasztor OO. Paulinów na Jasnej Górze
!!!voices:	5
!!title: @{OTL}, @{GTL}, ed. @{ENC}
!!!pag:
!!!GTL: Responsoria in Hebdomada majore
!!!EFL: 
!!!YEM: Creative Commons CC/BY/NC/SA 4.0
!!!ENC: Marcin Konik
!!!END: 2015-0m-dd
!!!EED: Marcin Konik
!!!EEV: 
!!!ONB: Encoded in vim by Marcin Konik
!!!CharacterEncoding: utf-8
!!!RDF**kern: l=long note in original notation
!!!RDF**kern: i=editorial accidental
!!muse2ps: z14jc180F
